source/img/bg-icon-human.svg

<svg width="38" height="52" viewBox="0 0 38 52" fill="none" xmlns="http://www.w3.org/2000/svg">
<path d="M35.216 37.2539C34.5305 33.8206 31.3098 33.2362 31.2996 33.2315V33.2316C31.265 33.2214 31.595 33.3042 23.4446 31.2839V31.0074H29.4445C30.6812 31.0074 31.6873 30.0012 31.6873 28.7646V17.3219C31.7881 16.8964 31.7883 16.4541 31.6873 16.0278V11.8516C31.6873 11.4307 31.3461 11.0898 30.9254 11.0898C30.5046 11.0898 30.1636 11.4307 30.1636 11.8516V14.0379C29.7614 13.7979 29.3021 13.6257 28.807 13.5405C28.6283 12.7466 27.9689 12.1189 27.1328 12.0091C26.2612 11.8946 25.6006 11.3864 25.1695 10.499C24.9677 10.0835 24.5724 9.8106 24.1123 9.76875C23.6518 9.72711 23.2158 9.92384 22.9429 10.2954C21.6334 12.0776 17.9928 16.075 11.7064 16.0748C11.2281 16.0748 10.9039 16.0521 10.7909 16.0471C9.63574 15.9775 8.65901 16.9005 8.65901 18.058V19.8084C8.65901 22.6062 9.81967 25.3185 11.8432 27.2498C12.5143 27.8904 13.2546 28.4247 14.0441 28.8508V29.4839H8.07167C7.67507 29.4839 7.3524 29.1613 7.3524 28.7648V11.6463C7.3524 6.09665 11.8773 1.52368 17.3432 1.52368C17.3609 1.52368 17.3786 1.52378 17.3962 1.52388C19.3545 1.53434 21.6156 2.0906 23.1564 2.94058C24.1329 3.47958 24.7361 3.05118 25.7004 3.05118C28.0542 3.05118 29.9404 5.47143 30.1665 7.64822C30.1679 7.68011 30.1712 7.80778 30.1716 8.2969C30.1721 9.03232 31.0027 9.08879 30.9341 9.05812C31.3549 9.05781 31.6956 8.71636 31.6953 8.29569C31.6952 8.1604 31.6963 7.62994 31.6836 7.50685C31.3773 4.47652 28.7924 1.52754 25.7005 1.52754C24.493 1.52754 24.3048 1.83365 23.8925 1.60655C22.1453 0.642622 19.5985 0.0120182 17.4044 0.000236869C11.0799 -0.040693 5.82865 5.22808 5.82865 11.6462V28.7647C5.82865 30.0014 6.83484 31.0075 8.07157 31.0075H14.0441V31.284L6.21987 33.2232C6.20951 33.2257 6.19936 33.2287 6.1891 33.2316L5.6175 33.4002C5.60034 33.4053 5.58348 33.4109 5.56672 33.417C4.54663 33.7977 2.76227 34.8023 2.27263 37.2543C-0.0460455 48.9017 0.0515568 48.4044 0.0459708 48.4443C-0.233327 50.4198 0.75559 52 3.1345 52H11.3728C11.7936 52 12.1346 51.659 12.1346 51.2382C12.1346 50.8173 11.7935 50.4764 11.3728 50.4764H8.50595V43.2908C8.50595 42.8699 8.1649 42.529 7.74413 42.529C7.32335 42.529 6.98231 42.87 6.98231 43.2908V50.4764H3.1345C2.12252 50.4764 1.53488 50.1505 1.52513 49.0875C1.52087 48.5689 1.50045 49.0744 3.76693 37.5522C4.10808 35.8436 5.34877 35.1299 6.07565 34.8536L6.60398 34.6978L11.0971 33.5841C16.0953 39.4723 15.7994 39.1603 16.0882 39.4421C17.7565 41.0694 20.1369 40.9545 21.7036 39.1146L26.4085 33.5883L30.8845 34.6977C31.014 34.7572 33.2421 35.1491 33.7218 37.5519C35.9687 48.9743 35.9679 48.5665 35.9637 49.0869C35.9559 50.1281 35.3927 50.4765 34.3543 50.4765H30.5338V43.2908C30.5338 42.8699 30.1929 42.529 29.772 42.529C29.3511 42.529 29.0102 42.87 29.0102 43.2908V50.4764H14.928C14.5071 50.4764 14.1662 50.8174 14.1662 51.2382C14.1662 51.6591 14.5072 52 14.928 52H34.3544C36.2366 52 37.47 50.9644 37.4874 49.0991C37.4938 48.228 37.4419 48.6442 35.216 37.2539ZM28.8569 15.1122C29.4931 15.3014 29.9837 15.7206 30.1637 16.2384V17.1112C29.9837 17.6291 29.4931 18.0484 28.8569 18.2375V15.1122ZM28.8569 19.9411V19.8004C29.333 19.7125 29.7751 19.5439 30.1637 19.3118V28.7647C30.1637 29.1613 29.8411 29.4837 29.4445 29.4837H23.4446V28.895C26.6747 27.2063 28.8569 23.8252 28.8569 19.9411ZM12.8953 26.1475C11.1715 24.5021 10.1829 22.1916 10.1829 19.8082C10.2282 18.1495 10.0731 17.9485 10.3377 17.6993C10.4315 17.6109 10.5575 17.5596 10.6994 17.5678C16.1619 17.8966 20.8602 15.4953 23.9621 11.4746C24.7985 12.9432 26.025 13.4004 26.9344 13.52C27.1617 13.5498 27.3333 13.7438 27.3333 13.9714C27.3333 16.079 27.3333 17.8488 27.3333 19.9412C27.3333 27.5214 18.2584 31.2662 12.8953 26.1475ZM20.5433 38.1268C19.4818 39.3737 17.996 39.3704 16.9371 38.1205L15.3475 36.2444H22.1459L20.5433 38.1268ZM23.4433 34.7206H14.0568L12.7475 33.1752L14.9894 32.6195C15.3295 32.5353 15.5679 32.2227 15.5679 31.8725L15.568 29.5156C17.6643 30.2144 19.878 30.2068 21.921 29.5373C21.9353 31.9723 21.8883 31.9166 21.9634 32.1314C22.0465 32.3688 22.2445 32.5562 22.4994 32.6194L24.756 33.1787L23.4433 34.7206Z" fill="#AE7C78"/>
</svg>

<svg width="38" height="52" fill="none" xmlns="http://www.w3.org/2000/svg"><path d="M35.216 37.254c-.685-3.433-3.906-4.018-3.916-4.023-.035-.01.295.073-7.855-1.947v-.277h6a2.245 2.245 0 002.242-2.242V17.322a2.801 2.801 0 000-1.294v-4.176a.762.762 0 10-1.523 0v2.186a3.957 3.957 0 00-1.357-.498 1.987 1.987 0 00-1.674-1.53c-.872-.115-1.532-.624-1.963-1.511a1.297 1.297 0 00-1.058-.73 1.293 1.293 0 00-1.17.526c-1.309 1.783-4.95 5.78-11.236 5.78-.478 0-.802-.023-.915-.028a2.015 2.015 0 00-2.132 2.011v1.75c0 2.798 1.16 5.51 3.184 7.442a10.19 10.19 0 002.201 1.6v.634H8.072a.72.72 0 01-.72-.72V11.647c0-5.55 4.525-10.122 9.991-10.122h.053c1.959.01 4.22.567 5.76 1.417.977.539 1.58.11 2.544.11 2.354 0 4.24 2.42 4.466 4.597a22 22 0 01.006.649c0 .735.83.792.762.761.42 0 .762-.342.761-.762 0-.136.001-.666-.011-.79-.307-3.03-2.892-5.978-5.983-5.978-1.208 0-1.396.306-1.809.079C22.145.643 19.6.012 17.404 0 11.08-.04 5.83 5.228 5.83 11.646v17.119a2.245 2.245 0 002.243 2.242h5.972v.277l-7.824 1.94-.03.008-.573.168a.887.887 0 00-.05.017c-1.02.38-2.805 1.385-3.294 3.837C-.046 48.902.052 48.404.046 48.444-.234 50.42.756 52 3.135 52h8.238a.762.762 0 100-1.524H8.506v-7.185a.762.762 0 10-1.524 0v7.185H3.134c-1.011 0-1.6-.325-1.609-1.389-.004-.518-.025-.013 2.242-11.535.341-1.708 1.582-2.422 2.309-2.698l.528-.156 4.493-1.114c4.998 5.888 4.702 5.576 4.991 5.858 1.668 1.627 4.049 1.513 5.616-.327l4.704-5.527 4.476 1.11c.13.06 2.358.451 2.838 2.854 2.247 11.422 2.246 11.014 2.242 11.535-.008 1.041-.571 1.39-1.61 1.39h-3.82V43.29a.762.762 0 10-1.524 0v7.185H14.928a.762.762 0 100 1.524h19.426c1.883 0 3.116-1.036 3.133-2.9.007-.872-.045-.456-2.271-11.846zm-6.36-22.142c.637.19 1.128.609 1.308 1.126v.873c-.18.518-.67.937-1.307 1.127v-3.126zm0 4.83V19.8a3.945 3.945 0 001.308-.488v9.453a.72.72 0 01-.72.719h-6v-.589a10.085 10.085 0 005.413-8.954zm-15.96 6.206a8.803 8.803 0 01-2.713-6.34c.045-1.659-.11-1.86.155-2.109a.48.48 0 01.361-.131c5.463.329 10.161-2.073 13.263-6.093.837 1.468 2.063 1.925 2.972 2.045.228.03.4.224.4.451v5.97c0 7.58-9.076 11.325-14.439 6.207zm7.647 11.979c-1.061 1.247-2.547 1.243-3.606-.007l-1.59-1.876h6.799l-1.603 1.883zm2.9-3.406h-9.386l-1.31-1.546 2.242-.555a.77.77 0 00.579-.747v-2.357a10.09 10.09 0 006.353.021c.014 2.435-.033 2.38.042 2.594a.762.762 0 00.536.488l2.257.56-1.313 1.542z" fill="#AE7C78"/></svg>
